img/docicons/pdf.svg

<svg width="40" height="48" viewBox="0 0 40 48" fill="none" xmlns="http://www.w3.org/2000/svg"><path d="M7 40a1 1 0 01-1-1V29a1 1 0 011-1h3c2.206 0 4 1.794 4 4s-1.794 4-4 4H8v3a1 1 0 01-1 1zm1-6h2c1.102 0 2-.898 2-2 0-1.102-.898-2-2-2H8v4z" fill="#F7A707"/><path d="M35 48H5c-2.756 0-5-2.244-5-5V5c0-2.756 2.244-5 5-5h30c2.756 0 5 2.244 5 5v38c0 2.756-2.244 5-5 5zM5 2C3.346 2 2 3.346 2 5v38c0 1.654 1.346 3 3 3h30c1.654 0 3-1.346 3-3V5c0-1.654-1.346-3-3-3H5z" fill="#F7A707"/><path d="M21 40h-4a1 1 0 01-1-1V29a1 1 0 011-1h4c1.654 0 3 1.346 3 3v6c0 1.654-1.346 3-3 3zm-3-2h3a1 1 0 001-1v-6a1 1 0 00-1-1h-3v8zm9 2a1 1 0 01-1-1v-8c0-1.654 1.346-3 3-3h4a1 1 0 010 2h-4a1 1 0 00-1 1v8a1 1 0 01-1 1z" fill="#F7A707"/><path d="M33 36h-6a1 1 0 010-2h6a1 1 0 010 2z" fill="#F7A707"/></svg>

<svg width="40" height="48" viewBox="0 0 40 48" fill="none" xmlns="http://www.w3.org/2000/svg">
<path d="M7 40C6.448 40 6 39.552 6 39V29C6 28.448 6.448 28 7 28H10C12.206 28 14 29.794 14 32C14 34.206 12.206 36 10 36H8V39C8 39.552 7.552 40 7 40ZM8 34H10C11.102 34 12 33.102 12 32C12 30.898 11.102 30 10 30H8V34Z" fill="#F7A707"/>
<path d="M35 48H5C2.244 48 0 45.756 0 43V5C0 2.244 2.244 0 5 0H35C37.756 0 40 2.244 40 5V43C40 45.756 37.756 48 35 48ZM5 2C3.346 2 2 3.346 2 5V43C2 44.654 3.346 46 5 46H35C36.654 46 38 44.654 38 43V5C38 3.346 36.654 2 35 2H5Z" fill="#F7A707"/>
<path d="M21 40H17C16.448 40 16 39.552 16 39V29C16 28.448 16.448 28 17 28H21C22.654 28 24 29.346 24 31V37C24 38.654 22.654 40 21 40ZM18 38H21C21.552 38 22 37.552 22 37V31C22 30.448 21.552 30 21 30H18V38Z" fill="#F7A707"/>
<path d="M27 40C26.448 40 26 39.552 26 39V31C26 29.346 27.346 28 29 28H33C33.552 28 34 28.448 34 29C34 29.552 33.552 30 33 30H29C28.448 30 28 30.448 28 31V39C28 39.552 27.552 40 27 40Z" fill="#F7A707"/>
<path d="M33 36H27C26.448 36 26 35.552 26 35C26 34.448 26.448 34 27 34H33C33.552 34 34 34.448 34 35C34 35.552 33.552 36 33 36Z" fill="#F7A707"/>
</svg>
